X:0
T:Are Ye Sleepin Maggie
G:Lowland song
M:4/4
L:1/8
Q:1/4=72
K:AMin
% dorian/minor hexatonic
e2  Ac       ee  e/d/c|d2  GB       dd    d/c/B   |\
A>B c>d      e>d c>d  |e>A c/B/A/G/ EA/c/ BA     ||
E>A Ac       B>A GA/B/|c>c B>G      E>c   BA      |\
E>A A>c      B>A GA/B/|c>A B>G      Ec    BA     ||
e2  A/B/c/d/ ee  e/d/c|d2  G/A/B/c/ d<g   e/d/c/B/|\
A>B c>d      e>d c>d  |e>A c/B/A/G/ EA/c/ BA     |]
